icons/icon.svg

<!-- This Source Code Form is subject to the terms of the Mozilla Public
   - License, v. 2.0. If a copy of the MPL was not distributed with this
   - file, You can obtain one at http://mozilla.org/MPL/2.0/. -->
<svg xmlns="http://www.w3.org/2000/svg" width="18" height="18" viewBox="0 0 18 18">
  <path d="M 14.311,5.123 C 11.949611,1.8674395 7.2457221,1.4737702 4.376047,4.2915223 1.5063718,7.1092744 1.8140948,11.819567 5.026,14.24 L 4.545,15.609 C -0.22029024,12.401128 -0.14091634,5.3620549 4.6953602,2.2623701 9.5316367,-0.83731477 15.960538,2.0304493 16.885,7.7 Z M 9.034,16.148 5,18 6.863,13.976 Z M 13.939,6.939 16.06,9.06 9.884,15.209 7.763,13.087 Z m 0.561,5.694 2.385,-2.313 c -0.578252,3.453211 -3.336653,6.128121 -6.806,6.6 L 12.5,14.569 c 0.796566,-0.496008 1.478357,-1.155981 2,-1.936 z"/>
  <path d="M 8.426338,10.613642 7.6469896,11.38885 7.3314171,11.071591 c 0.019675,0.17804 -0.065787,0.464489 -0.1013846,0.59033 -0.062714,0.219798 -0.203504,0.462332 -0.3836482,0.64152 C 6.5551228,12.593155 6.204328,12.75904 5.7777599,12.78477 5.2689015,12.81532 4.7779837,12.576512 4.3861163,12.182551 3.9875499,11.781856 3.8082632,11.323815 3.8482568,10.808429 3.8795718,10.398804 3.9978224,9.9782641 4.2840329,9.6935741 c 0.1666763,-0.165791 0.3870988,-0.355303 0.6039052,-0.430287 0.1243731,-0.04332 0.3696388,-0.09815 0.5509745,-0.09431 L 3.7765712,7.4977554 4.5559191,6.7225481 Z M 6.4071354,10.177293 C 6.2597662,10.029139 6.0426856,9.8921891 5.8361478,9.8933201 5.6279363,9.892775 5.3460657,9.98892 5.1979094,10.136293 c -0.1649923,0.164117 -0.1984589,0.436166 -0.180601,0.666255 0.014612,0.186422 0.1265881,0.384858 0.255536,0.514495 0.1289475,0.129637 0.3210725,0.225378 0.5074146,0.240988 0.2283065,0.02076 0.4256753,-0.0058 0.5923515,-0.171494 0.1498399,-0.149043 0.2654998,-0.38921 0.2660455,-0.594063 0.00222,-0.206527 -0.082477,-0.465339 -0.2315206,-0.615181 z"/>
  <path d="M 8.2278221,3.1021214 C 8.0981855,3.2310693 8.0331277,3.3862183 8.0326423,3.5675607 c -4.77e-4,0.1779874 0.063763,0.3317974 0.1927115,0.4614351 0.1289467,0.1296358 0.2832504,0.1955353 0.4629131,0.1976912 0.181345,4.838e-4 0.336836,-0.063749 0.466472,-0.1926969 0.131319,-0.1306214 0.197219,-0.2849243 0.197691,-0.462913 C 9.3529139,3.3897319 9.2878429,3.2333986 9.1572219,3.1020794 9.0282729,2.9724418 8.8739629,2.9082267 8.6942939,2.909425 8.5129486,2.9089412 8.357458,2.9731746 8.2278221,3.1021214 Z M 7.4767682,6.4506182 C 6.9952601,6.9295678 6.7733252,7.4489207 6.8109558,8.0086741 6.8428068,8.471702 7.0185954,8.8639311 7.3383849,9.18543 7.6935091,9.54245 8.0998808,9.737176 8.5575144,9.769615 9.1136089,9.810125 9.6256919,9.597621 10.09373,9.132069 10.560086,8.668191 10.774475,8.158085 10.736926,7.6017841 10.706925,7.1439838 10.521463,6.7437093 10.180471,6.4008978 9.8430149,6.061638 9.4446329,5.8766321 8.9853159,5.8458676 8.422404,5.8086045 7.9195528,6.0101861 7.4767682,6.4506182 Z M 9.2050379,4.9128973 11.666142,7.3871471 12.494469,6.5632213 10.033367,4.0889718 Z M 8.2014626,7.2296939 C 8.3529859,7.0789755 8.5375193,7.0069004 8.7548929,7.0132993 c 0.217291,0.00294 0.405409,0.084319 0.56442,0.2441805 0.160778,0.1616369 0.243728,0.3510989 0.248971,0.5685032 0.0035,0.21563 -0.07129,0.399738 -0.224502,0.5521301 -0.171727,0.1708149 -0.37865,0.242267 -0.620675,0.214451 C 8.5277866,8.5712941 8.3603449,8.4905091 8.2207687,8.3501871 8.0829589,8.2116411 8.0039349,8.0446491 7.9837084,7.849216 7.9571824,7.6070467 8.0297365,7.4005076 8.2014626,7.2296939 Z"/>
</svg>

<svg width="18" height="18" xmlns="http://www.w3.org/2000/svg"><path fill="#0a84ff" d="M8.228 3.102a.635.635 0 0 0-.195.466.63.63 0 0 0 .192.461c.13.13.284.196.463.198a.635.635 0 0 0 .467-.193.634.634 0 0 0 .197-.463.64.64 0 0 0-.195-.469.624.624 0 0 0-.463-.193.635.635 0 0 0-.466.193Zm-.751 3.349c-.482.479-.704.998-.666 1.558.032.463.208.855.527 1.176.356.357.762.552 1.22.585.556.04 1.068-.172 1.536-.638.466-.464.68-.974.643-1.53A1.828 1.828 0 0 0 10.18 6.4a1.81 1.81 0 0 0-1.195-.555c-.563-.037-1.065.164-1.508.605Zm1.728-1.538 2.461 2.474.828-.824-2.46-2.474ZM8.201 7.23a.723.723 0 0 1 .554-.217.785.785 0 0 1 .564.244.81.81 0 0 1 .25.569.732.732 0 0 1-.225.552.722.722 0 0 1-.62.215.814.814 0 0 1-.503-.243.808.808 0 0 1-.237-.5.722.722 0 0 1 .217-.62Zm.225 3.384-.779.775-.316-.317c.02.178-.065.464-.101.59-.063.22-.203.462-.384.641a1.6 1.6 0 0 1-1.068.482c-.51.03-1-.208-1.392-.602-.398-.401-.578-.86-.538-1.375.032-.41.15-.83.436-1.114.167-.166.387-.356.604-.43a1.86 1.86 0 0 1 .55-.095L3.778 7.498l.779-.775Zm-2.019-.437c-.147-.148-.364-.285-.57-.284-.21 0-.49.096-.64.243-.164.164-.198.436-.18.667a.886.886 0 0 0 .256.514c.129.13.32.225.507.241.229.02.426-.006.593-.171a.918.918 0 0 0 .266-.595c.002-.206-.083-.465-.232-.615zm7.904-5.054c-2.361-3.256-7.065-3.65-9.935-.831-2.87 2.817-2.562 7.528.65 9.948l-.481 1.369C-.22 12.401-.141 5.362 4.695 2.262c4.837-3.1 11.266-.232 12.19 5.438ZM9.034 16.148 5 18l1.863-4.024Zm4.905-9.209L16.06 9.06l-6.176 6.149-2.121-2.122Zm.561 5.694 2.385-2.313a7.993 7.993 0 0 1-6.806 6.6l2.421-2.351a6.608 6.608 0 0 0 2-1.936z"/></svg>
